X:205
T: Cumbernald House
N: O'Farrell's Pocket Companion v.3 (Sky ed. p.104)
N: "Scotch"
M: C
R: reel
L: 1/8
Q: 320
K: G
GA | BABd {c}B2 AG| EDEG A2 Bd| edeg dc/B/ BA/G/|E2 GA E2 :|
BA |GABc {c}d3e| dBAG d2 gf| e>fga gfed| B2 ef e3f|
gfed B2 ef/g/| e/d/c/B/ c/B/A/G/ A2 Bd| edeg dc/B/ c/B/A/G/|
E2 GA G2 :|
